assets/themes/natuurpunt/nature_reserve.svg

<?xml version="1.0" encoding="UTF-8" standalone="no"?>
<svg
   width="143.75452"
   height="178.10156"
   viewBox="0 0 143.75452 178.10156"
   version="1.1"
   id="svg5"
   sodipodi:docname="nature_reserve.svg"
   inkscape:version="1.1.1 (1:1.1+202109281949+c3084ef5ed)"
   xmlns:inkscape="http://www.inkscape.org/namespaces/inkscape"
   xmlns:sodipodi="http://sodipodi.sourceforge.net/DTD/sodipodi-0.dtd"
   xmlns="http://www.w3.org/2000/svg"
   xmlns:svg="http://www.w3.org/2000/svg">
  <defs
     id="defs9" />
  <sodipodi:namedview
     id="namedview7"
     pagecolor="#505050"
     bordercolor="#eeeeee"
     borderopacity="1"
     inkscape:pageshadow="0"
     inkscape:pageopacity="0"
     inkscape:pagecheckerboard="0"
     showgrid="false"
     inkscape:zoom="4.4833333"
     inkscape:cx="68.475836"
     inkscape:cy="76.171004"
     inkscape:current-layer="svg5" />
  <g
     id="surface1"
     transform="translate(-111.57104,71.542969)">
    <path
       style="fill:#ffffff;fill-opacity:1;fill-rule:nonzero;stroke:none"
       d="m 240.03125,-3.148438 c 1.08203,-3.1875 1.62891,-6.535156 1.61719,-9.902343 0.008,-15.003907 -10.77735,-27.839844 -25.5586,-30.417969 -1.49218,-15.910156 -14.84375,-28.074219 -30.82422,-28.074219 -15.98046,0 -29.33593,12.164063 -30.82421,28.074219 -16.1875,0.9375 -28.90625,14.207031 -29.16016,30.417969 -0.0117,3.367187 0.53516,6.714843 1.61719,9.902343 -10.14844,5.9375 -16.0625,17.113282 -15.25391,28.84375 0.80469,11.734376 8.1875,21.996094 19.05469,26.488282 10.86719,4.496094 23.34375,2.445312 32.19922,-5.292969 2.57812,2.648437 5.6289,4.785156 9,6.300781 v 53.367184 h 23.13281 V 54.71875 c 4,-1.378906 7.69922,-3.515625 10.89062,-6.296875 9.20313,6.824219 21.42188,8.011719 31.76563,3.078125 10.34766,-4.929688 17.12109,-15.171875 17.60937,-26.621094 0.49219,-11.449218 -5.38281,-22.230468 -15.26562,-28.027344 z m 0,0"
       id="path2" />
  </g>
</svg>

<?xml version="1.0" encoding="UTF-8" standalone="yes"?>
<svg xmlns="http://www.w3.org/2000/svg" xmlns:xlink="http://www.w3.org/1999/xlink" width="360px" height="9px" viewBox="0 0 360 9" version="1.1">
  <g id="surface1">
    <path style=" stroke:none;fill-rule:nonzero;fill:rgb(100%,100%,100%);fill-opacity:1;" d="M 240.03125 -3.148438 C 241.113281 -6.335938 241.660156 -9.683594 241.648438 -13.050781 C 241.65625 -28.054688 230.871094 -40.890625 216.089844 -43.46875 C 214.597656 -59.378906 201.246094 -71.542969 185.265625 -71.542969 C 169.285156 -71.542969 155.929688 -59.378906 154.441406 -43.46875 C 138.253906 -42.53125 125.535156 -29.261719 125.28125 -13.050781 C 125.269531 -9.683594 125.816406 -6.335938 126.898438 -3.148438 C 116.75 2.789062 110.835938 13.964844 111.644531 25.695312 C 112.449219 37.429688 119.832031 47.691406 130.699219 52.183594 C 141.566406 56.679688 154.042969 54.628906 162.898438 46.890625 C 165.476562 49.539062 168.527344 51.675781 171.898438 53.191406 L 171.898438 106.558594 L 195.03125 106.558594 L 195.03125 54.71875 C 199.03125 53.339844 202.730469 51.203125 205.921875 48.421875 C 215.125 55.246094 227.34375 56.433594 237.6875 51.5 C 248.035156 46.570312 254.808594 36.328125 255.296875 24.878906 C 255.789062 13.429688 249.914062 2.648438 240.03125 -3.148438 Z M 240.03125 -3.148438 "/>
  </g>
</svg>
